src/assets/icons/fa/toggle-down.svg

<?xml version="1.0" encoding="utf-8"?>
<svg width="1792" height="1792" viewBox="0 0 1792 1792" xmlns="http://www.w3.org/2000/svg"><path d="M1273 675q18 35-5 66l-320 448q-19 27-52 27t-52-27l-320-448q-23-31-5-66 17-35 57-35h640q40 0 57 35zm135 701v-960q0-13-9.5-22.5t-22.5-9.5h-960q-13 0-22.5 9.5t-9.5 22.5v960q0 13 9.5 22.5t22.5 9.5h960q13 0 22.5-9.5t9.5-22.5zm256-960v960q0 119-84.5 203.5t-203.5 84.5h-960q-119 0-203.5-84.5t-84.5-203.5v-960q0-119 84.5-203.5t203.5-84.5h960q119 0 203.5 84.5t84.5 203.5z"/></svg>

<svg width="1792" height="1792" xmlns="http://www.w3.org/2000/svg"><path d="M1273 675q18 35-5 66l-320 448q-19 27-52 27t-52-27L524 741q-23-31-5-66 17-35 57-35h640q40 0 57 35zm135 701V416q0-13-9.5-22.5T1376 384H416q-13 0-22.5 9.5T384 416v960q0 13 9.5 22.5t22.5 9.5h960q13 0 22.5-9.5t9.5-22.5zm256-960v960q0 119-84.5 203.5T1376 1664H416q-119 0-203.5-84.5T128 1376V416q0-119 84.5-203.5T416 128h960q119 0 203.5 84.5T1664 416z"/></svg>
